Papirus/32x32/status/changes-allow.svg

<svg xmlns="http://www.w3.org/2000/svg" width="32" height="32" version="1">
 <path style="opacity:0.2" d="M 16,3 C 11.907463,3 8.5584191,6.0443272 8.0683594,10 H 11.099609 C 11.560604,7.7126387 13.572832,6 16,6 c 2.77,0 5,2.23 5,5 v 3 h 3 V 11 C 24,6.568 20.432,3 16,3 Z"/>
 <path style="fill:#d2d2d2" d="M 16 2 C 11.907463 2 8.5584191 5.0443272 8.0683594 9 L 11.099609 9 C 11.560604 6.7126387 13.572832 5 16 5 C 18.77 5 21 7.23 21 10 L 21 13 L 24 13 L 24 10 C 24 5.568 20.432 2 16 2 z"/>
 <rect style="fill:#fe3c38" width="17" height="22" x="-30" y="-27" rx="1.4" ry="1.4" transform="matrix(0,-1,-1,0,0,0)"/>
 <path style="fill:#ffffff;opacity:0.2" d="M 16 2 C 11.907463 2 8.5584191 5.0443272 8.0683594 9 L 8.2597656 9 C 9.1444468 5.5434256 12.260084 3 16 3 C 20.432 3 24 6.568 24 11 L 24 10 C 24 5.568 20.432 2 16 2 z"/>
 <path fill="#fff" opacity=".1" d="m6.4004 13c-0.7756 0-1.4004 0.625-1.4004 1.4v1c0-0.775 0.6248-1.4 1.4004-1.4h19.2c0.775 0 1.4 0.625 1.4 1.4v-1c0-0.775-0.625-1.4-1.4-1.4h-19.2z"/>
 <rect style="fill:#fe6a6a" width="22" height="10" x="5" y="16" rx="0" ry="0"/>
 <path style="opacity:0.2" d="m 5,28.6 v 1 C 5,30.375 5.6248,31 6.4004,31 h 19.2 c 0.775,0 1.4,-0.625 1.4,-1.4 v -1 c 0,0.775 -0.625,1.4 -1.4,1.4 h -19.2 c -0.7752,0 -1.4,-0.625 -1.4,-1.4 z"/>
</svg>

<svg xmlns="http://www.w3.org/2000/svg" width="32" height="32" version="1">
 <path style="opacity:0.2" d="M 16,3 C 11.907,3 8.5584,6.0443 8.0684,10 H 11.1 C 11.561,7.7126 13.573,6 16,6 18.77,6 21,8.23 21,11 V 14 H 24 V 11 C 24,6.568 20.432,3 16,3 Z"/>
 <path style="fill:#d2d2d2" d="M 16,2 C 11.907,2 8.5584,5.0443 8.0684,9 H 11.1 C 11.561,6.7126 13.573,5 16,5 18.77,5 21,7.23 21,10 V 13 H 24 V 10 C 24,5.568 20.432,2 16,2 Z"/>
 <rect style="fill:#fe3c38" width="17" height="22" x="-30" y="-27" rx="1.4" ry="1.4" transform="matrix(0,-1,-1,0,0,0)"/>
 <path style="opacity:0.2;fill:#ffffff" d="M 16,2 C 11.907,2 8.5584,5.0443 8.0684,9 H 8.2598 C 9.1444,5.5434 12.26,3 16,3 20.432,3 24,6.568 24,11 V 10 C 24,5.568 20.432,2 16,2 Z"/>
 <path style="opacity:0.1;fill:#ffffff" d="M 6.4004,13 C 5.6248,13 5,13.625 5,14.4 V 15.4 C 5,14.625 5.6248,14 6.4004,14 H 25.6 C 26.375,14 27,14.625 27,15.4 V 14.4 C 27,13.625 26.375,13 25.6,13 Z"/>
 <rect style="fill:#fe6a6a" width="22" height="10" x="5" y="16" rx="0" ry="0"/>
 <path style="opacity:0.2" d="M 5,28.6 V 29.6 C 5,30.375 5.6248,31 6.4004,31 H 25.6 C 26.375,31 27,30.375 27,29.6 V 28.6 C 27,29.375 26.375,30 25.6,30 H 6.4004 C 5.6252,30 5.0004,29.375 5.0004,28.6 Z"/>
 <path style="opacity:0.1;fill:#ffffff" d="M 5,26.6 V 27.6 C 5,28.375 5.6248,29 6.4004,29 H 25.6 C 26.375,29 27,28.375 27,27.6 V 26.6 C 27,27.375 26.375,28 25.6,28 H 6.4004 C 5.6252,28 5.0004,27.375 5.0004,26.6 Z"/>
 <path style="fill:#d4001b" d="M 5,27.6 V 28.6 C 5,29.375 5.6248,30 6.4004,30 H 25.6 C 26.375,30 27,29.375 27,28.6 V 27.6 C 27,28.375 26.375,29 25.6,29 H 6.4004 C 5.6252,29 5.0004,28.375 5.0004,27.6 Z"/>
</svg>
